X:2
T:Le maitre de maison
R:Branle
C:Trad.
A:Lorraine
O:France
Z:Transcrit et/ou corrigé par Michel BELLON - 2006-06-06
Z:Pour toute observation mailto:galouvielle@free.fr
M:2/4
L:1/8
Q:1/4=105
K:C
A|Ae ed|e2c2|e2dc|B3A|Ae ed|e2c2|e2dc|B3c/2B/2|
w:Mais où est-donc le maî-tre de la mai-son~? Mais où est-donc le maî-tre de la mai-son~? Il des
Ac Bc/2B/2|Ac Bc/2B/2|Ac Bc/2B/2|AcB2|A2e2|d2B2|A3:|
w:cend la rue, ou-blie sa char-rue Bien qu'il se-rait temps, d'la-bou-rer les champs, d'la-bou-rer les champs

W:
W:Mais où est-donc le maître de la maison ? (bis)
W:Il descend la rue, oublie sa charrue
W:Bien qu'il serait temps, d'labourer les champs
W:
W:Où est donc la maîtresse de la maison ? (bis)
W:Elle fait la cuisine, sans oeufs ni farine,
W:Vends la poule au pot et garde le magot
W:
W:Mais où est donc le fils de la maison ? (bis)
W:C'est un petit ange qui chasse les mésanges
W:Avec son pipeau crie comme un crapeau.
W:
W:Mais où est donc la fille de la maison ? (bis)
W:Elle est à la messe et reçoit caresse
W:D'un ou deux amants, d'tout un régiment
W:
W:Où est la servante de la maison ? (bis)
W:En battant la chatte avec sa baratte
W:Elle a mis d'la crème dans toute la pièce
W:Et le maître l'aime
%%begintext
4 x

Ouvre-moi (2 x)
%%endtext

%%footer $D   Galouvielle-MBe 2007 \nBranle (France)
